www/assets/icons/pets.svg

<svg width="24" height="24" viewBox="0 0 24 24" xmlns="http://www.w3.org/2000/svg" fill='currentColor'><path d="M4.5 11.4976C5.88071 11.4976 7 10.3783 7 8.99756C7 7.61685 5.88071 6.49756 4.5 6.49756C3.11929 6.49756 2 7.61685 2 8.99756C2 10.3783 3.11929 11.4976 4.5 11.4976Z"/><path d="M9 7.49756C10.3807 7.49756 11.5 6.37827 11.5 4.99756C11.5 3.61685 10.3807 2.49756 9 2.49756C7.61929 2.49756 6.5 3.61685 6.5 4.99756C6.5 6.37827 7.61929 7.49756 9 7.49756Z"/><path d="M15 7.49756C16.3807 7.49756 17.5 6.37827 17.5 4.99756C17.5 3.61685 16.3807 2.49756 15 2.49756C13.6193 2.49756 12.5 3.61685 12.5 4.99756C12.5 6.37827 13.6193 7.49756 15 7.49756Z"/><path d="M19.5 11.4976C20.8807 11.4976 22 10.3783 22 8.99756C22 7.61685 20.8807 6.49756 19.5 6.49756C18.1193 6.49756 17 7.61685 17 8.99756C17 10.3783 18.1193 11.4976 19.5 11.4976Z"/><path d="M17.34 14.3576C16.47 13.3376 15.74 12.4676 14.86 11.4476C14.4 10.9076 13.81 10.3676 13.11 10.1276C13 10.0876 12.89 10.0576 12.78 10.0376C12.53 9.99756 12.26 9.99756 12 9.99756C11.74 9.99756 11.47 9.99756 11.21 10.0476C11.1 10.0676 10.99 10.0976 10.88 10.1376C10.18 10.3776 9.6 10.9176 9.13 11.4576C8.26 12.4776 7.53 13.3476 6.65 14.3676C5.34 15.6776 3.73 17.1276 4.03 19.1576C4.32 20.1776 5.05 21.1876 6.36 21.4776C7.09 21.6276 9.42 21.0376 11.9 21.0376H12.08C14.56 21.0376 16.89 21.6176 17.62 21.4776C18.93 21.1876 19.66 20.1676 19.95 19.1576C20.26 17.1176 18.65 15.6676 17.34 14.3576Z"/></svg>

<svg xmlns="http://www.w3.org/2000/svg" width="24" height="24" viewBox="0 0 24 24" fill='currentColor'><path d="M4.5 11.498a2.5 2.5 0 1 0 0-5 2.5 2.5 0 0 0 0 5m4.5-4a2.5 2.5 0 1 0 0-5 2.5 2.5 0 0 0 0 5m6 0a2.5 2.5 0 1 0 0-5 2.5 2.5 0 0 0 0 5m4.5 4a2.5 2.5 0 1 0 0-5 2.5 2.5 0 0 0 0 5m-2.16 2.86c-.87-1.02-1.6-1.89-2.48-2.91-.46-.54-1.05-1.08-1.75-1.32q-.165-.06-.33-.09c-.25-.04-.52-.04-.78-.04s-.53 0-.79.05q-.165.03-.33.09c-.7.24-1.28.78-1.75 1.32-.87 1.02-1.6 1.89-2.48 2.91-1.31 1.31-2.92 2.76-2.62 4.79.29 1.02 1.02 2.03 2.33 2.32.73.15 3.06-.44 5.54-.44h.18c2.48 0 4.81.58 5.54.44 1.31-.29 2.04-1.31 2.33-2.32.31-2.04-1.3-3.49-2.61-4.8"/></svg>
